X: 43335
T: World's End
R: polka
M: 2/4
K: Amajor
|:E>F AB|cf ec|BA A>B|cA ce|
E>F AB|cf ec|BA A>B|1 cA AF:|2 cA cd||
e>f ea|fe cA|BA FA|dB cd|
e>f ea|fe cA|Bc A>B|cA cd|
e>f ea|fe cA|BA FA|dB cd|
ec a>f|ec BA|FD EA/B/|cA AF||

